X:1
T:Title
%%score { ( 1 3 ) | ( 2 4 ) }
L:1/8
Q:1/4=100
M:4/4
K:D
V:1 treble nm="Grand Piano"
V:3 treble 
V:2 bass 
V:4 bass 
V:1
 [A,FA]4 [A,EA]2 [A,EG]2 | [B,DF]4 [F,CF]2[K:bass] [F,CE]2 | z4[K:treble] z2 C2 | [A,DF]6 z2 | %4
w: Mickey~Holiday * *||||
 [A,FA]4 [A,EA]2 [A,EG]2 | [B,DF]4 [F,CF]2[K:bass] [F,CE]2 | [G,B,D]4 [G,B,D]2 .[G,CE]2 | %7
w: |||
 [F,D]6 z2 | [A,FA]4 [A,EA]2 [A,EG]2 | [B,DF]4 [F,CF]2[K:bass] [F,CE]2 | z4[K:treble] z2 C2 | %11
w: ||||
 [A,DF]6 z2 | [A,FA]4 [A,EA]2 [A,EG]2 | [B,DF]4 [F,CF]2[K:bass] [F,CE]2 | [G,B,D]4 [G,B,D]2 [CE]D | %15
w: ||||
 D6 z2 | d4 d2 B2 | c4 c2 A2 | [GB]4 B2 GA | [FA]6 z2 | d4 d2 B2 | c4 c2 A2 | %22
w: |||||||
 [D^GB]4 [DGB]2 [B,EG]2 | [CEA]6 z2 | [A,FA]4 [A,EA]2 [A,EG]2 | [B,DF]4 [F,CF]2[K:bass] [F,CE]2 | %26
w: ||||
 z4[K:treble] z2 C2 | F6 z2 | [FA]4 [EA]2 [Ec]2 | F4 z4 | z4[K:bass] [CE]4 | [F,D]8 |] %32
w: ||||||
V:2
 D,4 C,2 C,2 | B,,4 A,,2 A,,2 | G,,4 A,,2 z A, | D,6 z2 | D,4 C,2 C,2 | B,,4 A,,2 A,,2 | %6
 G,,4 A,,2 z D | D,6 z2 | D,4 C,2 C,2 | B,,4 A,,2 A,,2 | G,,4 A,,2 z A, | D,6 z2 | D,4 C,2 C,2 | %13
 B,,4 A,,2 A,,2 | G,,4 A,,2 [A,,G,]2 | [D,F,]6 z2 | [G,B,G]4 [G,B,G]2 [G,DG]2 | %17
 [F,A,F]4 [F,A,F]2[K:bass] [F,CF]2 | [E,D]4[K:treble] [A,DG]2 [A,CE]2 | [D,D]6 z2 | %20
 [G,B,G]4 [G,B,G]2 [G,DG]2 | [F,A,F]4 [F,A,F]2[K:bass] [F,CF]2 | E,4 E,2 E,2 | A,,6 z2 | %24
 D,4 C,2 C,2 | B,,4 A,,2 A,,2 | G,,4 A,,2 z A, | [D,A,D]6 z2 | [D,A,]4 [C,A,]2 [C,A,]2 | %29
 B,4- [G,,B,]2 G,,2 | A,,4 z2 G,A,, | D,8 |] %32
V:3
 x8 | x6[K:bass] x2 | [G,B,D]4[K:treble] [G,B,D]2 [G,E]F | x8 | x8 | x6[K:bass] x2 | x8 | x8 | x8 | %9
 x6[K:bass] x2 | [G,B,D]4[K:treble] [G,B,D]2 [G,E]F | x8 | x8 | x6[K:bass] x2 | x8 | x8 | x8 | x8 | %18
 x8 | x8 | x8 | x8 | x8 | x8 | x8 | x6[K:bass] x2 | [G,B,D]4[K:treble] [G,B,D]2 [G,E]F | x8 | x8 | %29
 d3- [A,,d-] [Gd]2 [B,EG]2 | [A,DF]4[K:bass] A,2 z [G,D] | x8 |] %32
V:4
 x8 | x8 | z4 z2 A,,2 | x8 | x8 | x8 | z4 z2 A,,2 | x8 | x8 | x8 | z4 z2 A,,2 | x8 | x8 | x8 | x8 | %15
 x8 | x8 | x6[K:bass] x2 | x4[K:treble] x4 | x8 | x8 | x6[K:bass] x2 | x8 | x8 | x8 | x8 | %26
 z4 z2 A,,2 | x8 | x8 | B,,4 z4 | z4 A,,4 | x8 |] %32

